X:2706
T:Carrick on Bannow, The
M:4/4
I:speed 250
S:unknown, photocopy from John Wilson
K:G
|:G2 GA Bddg | e2 ce dBGB | cBAc BAGB | AGFA dcBA |
G2 GA Bddg | e2ce dBGB | cBAc BAGB | AGFA G4:|
|:defg afdf | agbg agfe | defg agbg | agfe dcBA | 
G2 GA Bddg | e2ce dBGB | cBAc BAGB | AGFA G4:|


